src/assets/icons/btn-reserved.svg

<?xml version="1.0" encoding="UTF-8" standalone="no"?>
<svg width="29px" height="29px" viewBox="0 0 29 29" version="1.1" xmlns="http://www.w3.org/2000/svg" xmlns:xlink="http://www.w3.org/1999/xlink">
    <!-- Generator: Sketch 48.2 (47327) - http://www.bohemiancoding.com/sketch -->
    <title>ic_reserved</title>
    <desc>Created with Sketch.</desc>
    <defs></defs>
    <g id="Artboard" stroke="none" stroke-width="1" fill="none" fill-rule="evenodd" transform="translate(-46.000000, -12.000000)">
        <path d="M66.0699427,32.4101182 C66.0796627,32.6414542 65.9520067,32.8617742 65.7465907,32.9699902 C65.5424707,33.0782062 65.2878067,33.0587662 65.1011827,32.9194462 L61.3829587,30.1427662 C61.2922387,30.0747262 61.1969827,30.0183502 61.0997827,29.9684542 L59.4933907,28.8720382 C59.1985507,28.6711582 58.7948467,28.7463262 58.5926707,29.0424622 C58.3904947,29.3379502 58.4676067,29.7410062 58.7630947,29.9425342 L59.0812627,30.1596142 L55.2327907,32.9635102 C55.0448707,33.0989422 54.7921507,33.1164382 54.5893267,33.0082222 C54.3858547,32.8993582 54.2594947,32.6796862 54.2685667,32.4489982 L54.7778947,19.5784222 C54.7850227,19.4118862 54.8608387,19.2544222 54.9865507,19.1442622 C55.0967107,19.0483582 55.2399187,18.9952222 55.3863667,18.9952222 C55.4051587,18.9952222 55.4245987,18.9958702 55.4446867,18.9978142 C57.0763507,19.1565742 59.2503907,19.3464382 60.3364387,19.3464382 C61.3738867,19.3464382 63.3872227,19.1611102 64.8938227,19.0055902 C65.0545267,18.9829102 65.2268947,19.0412302 65.3539027,19.1513902 C65.4796147,19.2602542 65.5554307,19.4190142 65.5625587,19.5861982 L66.0699427,32.4088222 L66.0699427,32.4101182 Z M66.8572627,19.5350062 C66.8365267,19.0107742 66.5974147,18.5144062 66.2027827,18.1716142 C65.8068547,17.8288222 65.2748467,17.6648782 64.7603347,17.7160702 C63.5518147,17.8411342 61.3706467,18.0504382 60.3364387,18.0504382 C59.5290307,18.0504382 57.8364547,17.9286142 55.5697507,17.7082942 C55.0494067,17.6525662 54.5277667,17.8249342 54.1344307,18.1677262 C53.7417427,18.5105182 53.5039267,19.0055902 53.4831907,19.5272302 L52.9738627,32.3978062 C52.9453507,33.1216222 53.3393347,33.8097982 53.9789107,34.1512942 C54.2575507,34.3003342 54.5653507,34.3735582 54.8731507,34.3735582 C55.2697267,34.3729102 55.6650067,34.2510862 55.9954867,34.0113262 L59.8867267,31.1763262 C60.0623347,31.0493182 60.2833027,31.0318222 60.4744627,31.1108782 L60.9332467,31.4245102 L64.3255267,33.9575422 C64.9106707,34.3949422 65.7057667,34.4558542 66.3505267,34.1169502 C66.9959347,33.7767502 67.3944547,33.0866302 67.3646467,32.3582782 L66.8572627,19.5350062 Z" id="Fill-11" fill="#607D8B"></path>
    </g>
</svg>

<svg width="29" height="29" viewBox="0 0 29 29" xmlns="http://www.w3.org/2000/svg"><g id="Artboard" fill="none" fill-rule="evenodd" transform="translate(-46 -12)"><path d="M66.07 32.41a.609.609 0 0 1-.969.51l-3.718-2.777a1.959 1.959 0 0 0-.283-.175l-1.607-1.096a.649.649 0 0 0-.73 1.07l.318.218-3.848 2.804a.614.614 0 0 1-.644.044.611.611 0 0 1-.32-.559l.509-12.87a.611.611 0 0 1 .667-.58c1.631.158 3.805.347 4.891.347 1.038 0 3.051-.185 4.558-.34a.612.612 0 0 1 .669.58l.507 12.823v.001zm.787-12.875a1.912 1.912 0 0 0-.654-1.363 1.931 1.931 0 0 0-1.443-.456c-1.208.125-3.39.334-4.424.334-.807 0-2.5-.121-4.766-.342a1.888 1.888 0 0 0-1.436.46c-.392.343-.63.838-.65 1.36l-.51 12.87a1.913 1.913 0 0 0 1.005 1.753 1.917 1.917 0 0 0 2.017-.14l3.89-2.835a.603.603 0 0 1 .588-.065l.46.314 3.392 2.533c.585.437 1.38.498 2.025.159a1.91 1.91 0 0 0 1.014-1.759l-.508-12.823z" id="Fill-11" fill="#607D8B"/></g></svg>
